media/img/firefox/mobile/protocol/screen-frame.svg

<svg width="243.336" height="293" viewBox="0 0 245 293" xmlns="http://www.w3.org/2000/svg"><g fill="none" fill-rule="evenodd"><path d="M287.137 517.556H112.01c-22.676 0-41.23-17.613-41.23-39.138 0 0-27.451-460.186-4.775-460.186l261.736 1.149c22.677 0 .628 459.037.628 459.037 0 21.525-18.554 39.138-41.232 39.138zm-.015-14.877c14.6 0 26.435-11.235 26.435-25.095V58.734c0-13.859-11.835-25.095-26.435-25.095H113.055c-14.6 0-26.434 11.235-26.434 25.095v418.851c0 13.858 11.834 25.094 26.434 25.094h174.067z" mask="url(#mask-1)" fill="#fff" transform="translate(-78 -30)"/><path d="M-78-30h400v323.308H-78z"/><path d="M283.377 527.451H117.138C95.612 527.451 78 509.838 78 488.313V69.14C78 47.614 95.612 30 117.138 30h166.24c21.526 0 39.138 17.614 39.138 39.14v419.173c0 21.525-17.612 39.138-39.139 39.138zm-.014-14.877c13.859 0 25.093-11.235 25.093-25.095V68.629c0-13.859-11.234-25.095-25.093-25.095H118.13c-13.86 0-25.093 11.235-25.093 25.095V487.48c0 13.858 11.233 25.094 25.093 25.094z" fill="#201238" mask="url(#d)" transform="translate(-78 -30)"/><path d="M286.602 135.951H114.838c-3.552 0-6.46-2.906-6.46-6.46V108.42c0-3.552 2.908-6.459 6.46-6.459h171.766c3.552 0 6.46 2.907 6.46 6.46v21.069c0 3.554-2.908 6.46-6.46 6.46" fill="#FFF" mask="url(#d)" transform="translate(-78 -30)"/></g></svg>

<?xml version="1.0" encoding="utf-8"?>
<svg width="243.336px" height="293px" viewBox="0 0 245 293" xmlns="http://www.w3.org/2000/svg">
  <defs>
    <path id="a" d="M0 0h400v323.308H0z"/>
    <path id="c" d="M0 0h244.516v497.45H0z"/>
    <path d="M26.492.134c-13.86 0-25.094 11.234-25.094 25.095v418.85c0 13.86 11.234 25.095 25.094 25.095h165.233c13.86 0 25.095-11.234 25.095-25.094V25.229c0-13.86-11.235-25.095-25.095-25.095" id="e"/>
    <path d="M25.492.134C11.632.134.398 11.368.398 25.229v418.85c0 13.86 11.234 25.095 25.094 25.095h165.233c13.86 0 25.095-11.234 25.095-25.094V25.229c0-13.86-11.235-25.095-25.095-25.095" id="g"/>
    <path d="M25.492.134C11.632.134.398 11.368.398 25.229v418.85c0 13.86 11.234 25.095 25.094 25.095h165.233c13.86 0 25.095-11.234 25.095-25.094V25.229c0-13.86-11.235-25.095-25.095-25.095" id="i"/>
    <path d="M26.492.134c-13.86 0-25.094 11.234-25.094 25.095v418.85c0 13.86 11.234 25.095 25.094 25.095h165.233c13.86 0 25.095-11.234 25.095-25.094V25.229c0-13.86-11.235-25.095-25.095-25.095" id="k"/>
  </defs>
  <g transform="matrix(1, 0, 0, 1, -78, -30)" fill="none" fill-rule="evenodd">
    <path d="M 287.137 517.556 L 112.01 517.556 C 89.334 517.556 70.78 499.943 70.78 478.418 C 70.78 478.418 43.329 18.232 66.005 18.232 L 327.741 19.381 C 350.418 19.381 328.369 478.418 328.369 478.418 C 328.369 499.943 309.815 517.556 287.137 517.556 Z M 287.122 502.679 C 301.722 502.679 313.557 491.444 313.557 477.584 L 313.557 58.734 C 313.557 44.875 301.722 33.639 287.122 33.639 L 113.055 33.639 C 98.455 33.639 86.621 44.874 86.621 58.734 L 86.621 477.585 C 86.621 491.443 98.455 502.679 113.055 502.679 L 287.122 502.679 Z" mask="url(#mask-1)" style="fill: rgb(255, 255, 255);"/>
    <path d="M 0 0 L 400 0 L 400 323.308 L 0 323.308 Z"/>
    <path d="M 283.377 527.451 L 117.138 527.451 C 95.612 527.451 78 509.838 78 488.313 L 78 69.14 C 78 47.614 95.612 30 117.138 30 L 283.378 30 C 304.904 30 322.516 47.614 322.516 69.14 L 322.516 488.313 C 322.516 509.838 304.904 527.451 283.377 527.451 Z M 283.363 512.574 C 297.222 512.574 308.456 501.339 308.456 487.479 L 308.456 68.629 C 308.456 54.77 297.222 43.534 283.363 43.534 L 118.13 43.534 C 104.27 43.534 93.037 54.769 93.037 68.629 L 93.037 487.48 C 93.037 501.338 104.27 512.574 118.13 512.574 Z" fill="#201238" mask="url(#d)"/>
    <path d="M 286.602 135.951 L 114.838 135.951 C 111.286 135.951 108.378 133.045 108.378 129.491 L 108.378 108.42 C 108.378 104.868 111.286 101.961 114.838 101.961 L 286.604 101.961 C 290.156 101.961 293.064 104.868 293.064 108.421 L 293.064 129.49 C 293.064 133.044 290.156 135.95 286.604 135.95" fill="#FFF" mask="url(#d)"/>
  </g>
</svg>
